X: 2626
T: Banana In The Ear
R: jig
M: 6/8
K: Dmajor
A|:d2A B/c/dA|BAF DEF|EDE ~e2d|cBc ABc|
d2A B/c/dA|BAF D2F|EDE ~e2d|cBc d2A:|
|:dAd ~f3|faf def|~e3 ~g3|gbb abg|
afg efd|edc dAF|E2e e2d|cBc d2A:|

